X:95
T:Tenpenny Bit, The
S:The Session: https://thesession.org/tunes/109#setting55403
C:Traditional
R:jig
K:Ador
M:6/8
L:1/8
Q:1/4=113
|:"Am"eAA eAA|"Em"BAB "G"GBd|"Am"eAA eAA|"Em"def "G"gfg|
|"Am"eAA eAA|"Em"BAB "G"G2B|"Em"def "G"gdB|"G"BAG "Am"A2d:|
|:"Am"eaa aga|"Em"bab "G"ged|"Am"eaa aga|"Em"bgf "G"g2 d|
|"Am"eaa aga|"Em"ab2 "G"ged|"Em"def "G"gdB|1"G"BAG "Am"A2d:|2"G"BAG "Am"A3||

